X: 9
T:Auld Lang Syne (old tune)
M:C
L:1/8
Q:120
S:SMM #413, 1796
Z:Bruce Olson
K:D
A|d3/2 d/ e f A3/2 B/ A F|d3/2 f/ e3/2 d/ B2 (d/2B3/2)|\
A3/2 F/ E D E3/2 D/ E3/2 F/|A2 B3/2A/ A3"Chorus"A|\
d2(ef) A3/2 B/ A F|(d3/2f/2) edB3 (d/B/)|\
A F E D E3/2 D/ E F|A2 ~B3/2A/ ({A/}d3)|]

